X: 33272
T: Purfy
R: jig
M: 6/8
K: Dmajor
Bc/<B/A/<B/ BAB|dBB BAF|G2 d3 E|F2 c3 ^A|
Bc/<B/A/<B/ BAB|dBB BAF|edc AEA|^A2 B2 c2|
Bc/<B/A/<B/ BAB|dBB BAF|G2 d- def|e2 c3 ^A|
Bc/<B/A/<B/ BAB|dBB eBf|BgB edB|ABc B3:|
Fdd dcB|Fdd dcB|Aee ecA|GBd F2 E|FBd dcB|
FBd dc=f|fed efd|BBB B3|fdB Bfd|z ec a2 b|edB Bcd|c2 B c2 B|FBd fBd|EAc ecA|
dcB ^ABc|B3 B3|Fdd dcB|Fdd dcB|Aee ecA|GBd F2 E|FBd dcB|FBd dc=f|fed efd|
BBB B3|fdB Bfd|z ec a2 b|edB Bcd|c2 B c2 B|FBd fBd|EAc ecA|dcB ^ABc|B3 B3|

